!!!COM: Music21
!!!OTL: slide_Pad-The-Road-Wi-Me
!!!OMV: slide_Pad-The-Road-Wi-Me
**kern
*clefG2
*k[f#c#g#]
*A:
*M12/8
=1
8ee
4ee
8cc#
4cc#
8bL
8bJ
2a
=
8b
4a
8ee
4ee
8cc#
2b
8cc#
=
8b
4a
8aa
4aa
8gg#
4gg#
8ff#
4ff#
=
8eeL
8ee
8cc#J
8cc#
4dd
8cc#
2b
8cc#
=||
8b
4a
8aa
4aa
8gg#
4gg#
8ff#
4ff#
!!linebreak:original
=
8eeL
8eeJ
8cc#
8cc#
4dd
8cc#
2b
8ryy
=
8ee
4ee
8cc#
4cc#
8bL
8bJ
2a
=
8b
4cc#
8ee
4ee
8cc#
[2a
8a]
=||
*-
